!!!OTL: Maedchen und Hasel
!!!OTL-incipit:Es wollt ein Maedchen zum Balle gehn,
!!!ARE: Europa, Mitteleuropa, Deutschland (BRD), Rheinland, Kr. Koeln, Sinthern
!!!YOR: 6, S. 246
!!    1928 aufgezeichnet
!!!SCT: Q0138D
!!!TXL: @@DE
!!!YEM: Copyright 1995, estate of Helmut Schaffrath.
**kern	**text
*ICvox	*
*M3/4	*
*k[f#]	*
*G:	*
{8g	1._Es
=1	=1
8gL	wollt
8bJ	ein
4b	Mad-
8aL	-chen
8gJ	zum
=2	=2
8f#L	Bal-
8aJ	-le
4.a}	gehn,
{8a	schnee-
=3	=3
8aL	-weiß
8ddJ	war
4.dd	sie
8b	ge-
=4	=4
(8bL	-klei-
8aJ)	.
4.a}	-det;
{(16aL	da
16bJ)	.
=5	=5
8ccL	sah
8eeJ	sie
(8.eeL	an
16ddJ	.
4ee)	.
=6	=6
(8ddL	dem
8ccJ)	.
16bL	We-
16ccJ	-ge,
16ddL	We-
16eeJ	-ge,
8.dd;}	stehn
{16b	ein
=7	=7
8aL	Lor-
8bJ	-beer-
4cc	-baum,
4dd	war
=8	=8
4cc	grü-
4b	-ne.
8r}	.
==	==
!!!AGN: Ballade, verlorene Unschuld, Moral
!!!ONB: ESAC (Essen Associative Code) Database: BALLADE
!!!AMT: simple triple
!!!AIN: vox
!!!EED: Helmut Schaffrath
!!!EEV: 1.0
!!@@COMMENT:"A 96 644, Sinthern, Kr. Köln (Rheinland). Aufgereichnet von Jean Esser, 1928"
!!@@END:
!!!source: Deutsche Volkslieder mit ihren Melodien Balladen. Herausgegeben vom Deutschen Volksliedarchiv. Sechster Band. Freiburg/Breisgau 1976.
!!!page: 246
!!!ENC: Anna Maria Matuszewska
!!!EEV: 2025/03/06
*-	*-
